X:87
T:Snowy Breasted Pearl, The
M:4/4
L:1/8
R:Air
S:O’Neill – O’Neill’s Irish Music (1915)
Z:AK/Fiddler’s Companion
F:http://www.ibiblio.org/fiddlers/SMA_SNY.htm
K:Eb
Bc/d/ |\
e>d c>B e3c | B>G FE F2 GA | B2 GE AG {G}F>E | E6 Bc/d/ |\
e>d cB d2 Gc | B>G FE F2 GA | B>B G2 AG {G}F>E | E2E2E2 ||
B>A |\
GBce d3d | ed {d}c>B B2zB | cdeg fedc | B6 Bc/d/ |\
e>d cB e2 Gc | BG F>E F2 GA | B2 GE AG {G}F>E | E6 |]
